Newaita/actions/symbolic/object-rotate-left-symbolic.svg

<svg height="16" viewBox="0 0 16 16" width="16" xmlns="http://www.w3.org/2000/svg"><g fill="#424242"><path d="m7.601562.441406c.175782.003906.335938.144532.335938.34375v4.632813c0 .1875-.148438.339843-.335938.34375-.003906 0-.011718 0-.015624 0-.066407-.003907-.132813-.023438-.1875-.0625l-3.308594-2.316407c-.195313-.136718-.195313-.425781 0-.5625l3.308594-2.316406c.0625-.042968.132812-.0625.203124-.0625zm0 0"/><path d="m7.9375 2.109375c3.300781 0 5.953125 2.65625 5.953125 5.953125 0 3.300781-2.652344 5.953125-5.953125 5.953125-3.296875 0-5.953125-2.652344-5.953125-5.953125v-.246094c0-.230468.183594-.414062.414063-.414062h1.15625c.230468 0 .414062.183594.414062.414062v.246094c0 2.199219 1.769531 3.96875 3.96875 3.96875s3.96875-1.769531 3.96875-3.96875-1.769531-3.96875-3.96875-3.96875zm0 0"/></g></svg>

<?xml version="1.0" encoding="UTF-8"?>
<svg xmlns="http://www.w3.org/2000/svg" xmlns:xlink="http://www.w3.org/1999/xlink" width="16px" height="16px" viewBox="0 0 16 16" version="1.1">
<g id="surface1">
<path style=" stroke:none;fill-rule:nonzero;fill:rgb(25.882354%,25.882354%,25.882354%);fill-opacity:1;" d="M 7.601562 0.441406 C 7.777344 0.445312 7.9375 0.585938 7.9375 0.785156 L 7.9375 5.417969 C 7.9375 5.605469 7.789062 5.757812 7.601562 5.761719 C 7.597656 5.761719 7.589844 5.761719 7.585938 5.761719 C 7.519531 5.757812 7.453125 5.738281 7.398438 5.699219 L 4.089844 3.382812 C 3.894531 3.246094 3.894531 2.957031 4.089844 2.820312 L 7.398438 0.503906 C 7.460938 0.460938 7.53125 0.441406 7.601562 0.441406 Z M 7.601562 0.441406 "/>
<path style=" stroke:none;fill-rule:nonzero;fill:rgb(25.882354%,25.882354%,25.882354%);fill-opacity:1;" d="M 7.9375 2.109375 C 11.238281 2.109375 13.890625 4.765625 13.890625 8.0625 C 13.890625 11.363281 11.238281 14.015625 7.9375 14.015625 C 4.640625 14.015625 1.984375 11.363281 1.984375 8.0625 L 1.984375 7.816406 C 1.984375 7.585938 2.167969 7.402344 2.398438 7.402344 L 3.554688 7.402344 C 3.785156 7.402344 3.96875 7.585938 3.96875 7.816406 L 3.96875 8.0625 C 3.96875 10.261719 5.738281 12.03125 7.9375 12.03125 C 10.136719 12.03125 11.90625 10.261719 11.90625 8.0625 C 11.90625 5.863281 10.136719 4.09375 7.9375 4.09375 Z M 7.9375 2.109375 "/>
</g>
</svg>
